assets/Last quarter moon face/Flat/last_quarter_moon_face_flat.svg

<svg width="32" height="32" viewBox="0 0 32 32" fill="none" xmlns="http://www.w3.org/2000/svg">
<path d="M16.4849 18.4386C17.0737 20.804 18.2734 23.027 20.07 24.8311C21.35 26.1111 22.82 27.0911 24.38 27.7711C24.88 27.9911 24.88 28.6911 24.38 28.9011C19.03 31.1511 12.58 29.9411 8.45004 25.2711C3.95004 20.1811 3.80004 12.3611 8.13004 7.12112C11.64 2.87112 16.97 1.29112 21.86 2.32112C22.38 2.43112 22.5 3.13112 22.06 3.43112C20.77 4.31112 19.6 5.42112 18.62 6.81112C17.5209 8.37487 16.7788 10.1152 16.388 11.9152C16.3894 11.9125 16.3901 11.9111 16.3901 11.9111C16.3901 11.9111 16.3873 11.9215 16.3823 11.9414C16.3075 12.2895 16.2457 12.6397 16.197 12.9914C16.1609 13.2933 16.1332 13.641 16.1301 14.0111C16.1222 14.7926 16.7125 15.2937 17.1927 15.7013C17.3208 15.8101 17.4411 15.9122 17.5401 16.0111C17.9201 16.4011 17.9201 17.0311 17.5301 17.4111L16.4849 18.4386Z" fill="#FCD53F"/>
<path d="M16.86 5.10107C18.6288 5.10107 20.0912 3.78894 20.3268 2.08493C18.0795 1.86371 15.7898 2.18025 13.6686 3.04013C14.2174 4.25537 15.4399 5.10107 16.86 5.10107ZM9 17.311C9 19.1399 7.59726 20.6412 5.80899 20.7976C5.00846 18.5661 4.78381 16.1591 5.14121 13.8292C5.25918 13.8172 5.37887 13.811 5.5 13.811C7.433 13.811 9 15.378 9 17.311ZM16.42 29.0911C17.8228 29.0911 18.96 27.9539 18.96 26.5511C18.96 25.1483 17.8228 24.0111 16.42 24.0111C15.0172 24.0111 13.88 25.1483 13.88 26.5511C13.88 27.9539 15.0172 29.0911 16.42 29.0911ZM13.94 6.59112C13.94 7.45821 13.2371 8.16112 12.37 8.16112C11.503 8.16112 10.8 7.45821 10.8 6.59112C10.8 5.72403 11.503 5.02112 12.37 5.02112C13.2371 5.02112 13.94 5.72403 13.94 6.59112Z" fill="#F9C23C"/>
<path d="M10.62 9.05103C9.25506 9.05103 8.14001 10.1583 8.14001 11.531C8.14001 11.8072 7.91616 12.031 7.64001 12.031C7.36387 12.031 7.14001 11.8072 7.14001 11.531C7.14001 9.60379 8.70497 8.05103 10.62 8.05103C10.8962 8.05103 11.12 8.27488 11.12 8.55103C11.12 8.82717 10.8962 9.05103 10.62 9.05103ZM12.8175 18.0582C13.2279 18.0016 13.6064 18.2883 13.663 18.6986C13.7323 19.2009 14.168 19.5811 14.67 19.5811C15.0842 19.5811 15.42 19.9169 15.42 20.3311C15.42 20.7453 15.0842 21.0811 14.67 21.0811C13.412 21.0811 12.3478 20.1414 12.177 18.9036C12.1205 18.4933 12.4072 18.1147 12.8175 18.0582ZM10.2482 13.3851C10.4471 12.8781 10.943 12.5211 11.53 12.5211C12.1377 12.5211 12.6563 12.9152 12.8377 13.4658C12.9673 13.8592 13.3912 14.0731 13.7847 13.9435C14.1781 13.8139 14.3919 13.3899 14.2624 12.9965C13.8837 11.8471 12.8023 11.0211 11.53 11.0211C10.3171 11.0211 9.27287 11.7642 8.85183 12.8372C8.70053 13.2227 8.89045 13.658 9.27604 13.8093C9.66163 13.9606 10.0969 13.7707 10.2482 13.3851Z" fill="#321B41"/>
</svg>

<svg xmlns="http://www.w3.org/2000/svg" width="32" height="32" fill="none"><path fill="#FCD53F" d="M16.485 18.439a13.73 13.73 0 0 0 3.585 6.392c1.28 1.28 2.75 2.26 4.31 2.94.5.22.5.92 0 1.13-5.35 2.25-11.8 1.04-15.93-3.63-4.5-5.09-4.65-12.91-.32-18.15 3.51-4.25 8.84-5.83 13.73-4.8.52.11.64.81.2 1.11-1.29.88-2.46 1.99-3.44 3.38a14.05 14.05 0 0 0-2.232 5.104l.002-.004-.008.03c-.075.348-.136.699-.185 1.05-.036.302-.064.65-.067 1.02-.008.782.582 1.283 1.063 1.69.128.11.248.211.347.31.38.39.38 1.02-.01 1.4l-1.045 1.028Z"/><path fill="#F9C23C" d="M16.86 5.101a3.5 3.5 0 0 0 3.467-3.016 14.065 14.065 0 0 0-6.658.955 3.5 3.5 0 0 0 3.191 2.061ZM9 17.311a3.5 3.5 0 0 1-3.191 3.487 14.275 14.275 0 0 1-.668-6.969A3.5 3.5 0 0 1 9 17.311Zm7.42 11.78a2.54 2.54 0 1 0 0-5.08 2.54 2.54 0 0 0 0 5.08Zm-2.48-22.5a1.57 1.57 0 1 1-3.14 0 1.57 1.57 0 0 1 3.14 0Z"/><path fill="#321B41" d="M10.62 9.051a2.481 2.481 0 0 0-2.48 2.48.5.5 0 1 1-1 0 3.481 3.481 0 0 1 3.48-3.48.5.5 0 1 1 0 1Zm2.198 9.007a.75.75 0 0 1 .845.64c.07.503.505.883 1.007.883a.75.75 0 0 1 0 1.5 2.526 2.526 0 0 1-2.493-2.177.75.75 0 0 1 .64-.846Zm-2.57-4.673a1.369 1.369 0 0 1 1.282-.864c.608 0 1.126.394 1.308.945a.75.75 0 1 0 1.424-.47 2.877 2.877 0 0 0-2.732-1.975 2.869 2.869 0 0 0-2.678 1.816.75.75 0 0 0 1.396.548Z"/></svg>
